resources/svg/rename-file.svg

<svg xmlns="http://www.w3.org/2000/svg" fill="none" viewBox="0 0 14 14"><path fill="currentColor" fill-rule="evenodd" d="M3.5 0.120117C3.08579 0.120117 2.75 0.455904 2.75 0.870117C2.75 1.28433 3.08579 1.62012 3.5 1.62012H5C5.34524 1.62012 5.66813 1.74987 5.89964 1.9682C6.12965 2.18512 6.25 2.46962 6.25 2.7563V7.19336H4.5C4.08579 7.19336 3.75 7.52915 3.75 7.94336C3.75 8.35757 4.08579 8.69336 4.5 8.69336H6.25V11.2441C6.25 11.5308 6.12965 11.8153 5.89964 12.0322C5.66813 12.2506 5.34524 12.3803 5 12.3803H3.5C3.08579 12.3803 2.75 12.7161 2.75 13.1303C2.75 13.5445 3.08579 13.8803 3.5 13.8803H5C5.71563 13.8803 6.41015 13.6126 6.92879 13.1235C6.953 13.1007 6.97674 13.0774 7 13.0538C7.02326 13.0774 7.047 13.1007 7.07121 13.1235C7.58985 13.6126 8.28437 13.8803 9 13.8803H10.5C10.9142 13.8803 11.25 13.5445 11.25 13.1303C11.25 12.7161 10.9142 12.3803 10.5 12.3803H9C8.65476 12.3803 8.33187 12.2506 8.10036 12.0322C7.87035 11.8153 7.75 11.5308 7.75 11.2441V8.69336H9.5C9.91421 8.69336 10.25 8.35757 10.25 7.94336C10.25 7.52915 9.91421 7.19336 9.5 7.19336H7.75V2.7563C7.75 2.46962 7.87035 2.18512 8.10036 1.9682C8.33187 1.74987 8.65476 1.62012 9 1.62012H10.5C10.9142 1.62012 11.25 1.28433 11.25 0.870117C11.25 0.455904 10.9142 0.120117 10.5 0.120117H9C8.28437 0.120117 7.58985 0.387811 7.07121 0.876939C7.047 0.899775 7.02326 0.923011 7 0.946632C6.97674 0.923011 6.953 0.899775 6.92879 0.876939C6.41015 0.387811 5.71563 0.120117 5 0.120117H3.5Z" clip-rule="evenodd"></path></svg>

<svg xmlns="http://www.w3.org/2000/svg" fill="none" viewBox="0 0 14 14"><path fill="currentColor" fill-rule="evenodd" d="M3.5.12a.75.75 0 0 0 0 1.5H5c.345 0 .668.13.9.348.23.217.35.502.35.788v4.437H4.5a.75.75 0 0 0 0 1.5h1.75v2.551c0 .287-.12.571-.35.788a1.313 1.313 0 0 1-.9.348H3.5a.75.75 0 0 0 0 1.5H5a2.813 2.813 0 0 0 2-.826l.071.07A2.813 2.813 0 0 0 9 13.88h1.5a.75.75 0 0 0 0-1.5H9c-.345 0-.668-.13-.9-.348a1.084 1.084 0 0 1-.35-.788v-2.55H9.5a.75.75 0 0 0 0-1.5H7.75V2.755c0-.286.12-.57.35-.788.232-.218.555-.348.9-.348h1.5a.75.75 0 0 0 0-1.5H9a2.813 2.813 0 0 0-2 .827A2.813 2.813 0 0 0 5 .12H3.5Z" clip-rule="evenodd"/></svg>
